X:1
T:Ego rogabo patrem
T:Andrea Gabrieli
T:Source : Liber primus Ecclesiasticarum Cantionum---Venetia---Ang.Gardano---1576. Editor : André Vierendeels (07/09/17).
T:Ego rogabo patrem
T:©
T:©
T:©
T:©
C:Andrea Gabrieli
Z:©
%%score [ 1 2 3 4 ]
L:1/8
Q:1/4=120
M:2/2
K:C
V:1 treble nm="Soprano" snm="S"
V:2 treble nm="Alto" snm="A"
V:3 treble-8 nm="Tenor 1" snm="T 1"
V:4 treble-8 nm="Tenor 2" snm="T 2"
V:1
 G4 G2 G2 | c6 A2- | A2 d3 c c2- | c2 B2 c2 G2 | G2 G2 A4 | A4 G4 | G4 z2 c2 | e6 e2 | %8
w: E- go ro-|ga- bo|_ pa- * *|* * trem, e-|go ro- ga-|bo pa-|trem, et|a- li-|
 d2 B2 c2 d2 | e2 e4 g2 | f4 e4 | z8 | z8 | z8 | z2 A2 c4- | c2 c2 B2 G2 | A2 B2 c2 A2- | %17
w: um pa- ra- cli-|tum da- bit|vo- bis,||||et a-|* li- um pa-|ra- cli- tum da-|
 A2 c2 B4 | A2 A3 B c2 | B2 c4 B2 | c8 | z2 c2 f3 f | f2 e2 d4 | c4 z2 G2 | c3 c c2 B2 | A4 G4- | %26
w: * bit vo-|bis, da- * *|bit vo- *|bis,|ut ma- ne-|at vo- bis-|cum, et|ma- ne- at vo-|bis- cum|
 G4 z2 A2- | A2 G2 c4 | B2 B2 B2 A2- | A2 G2 A4- | A4 z4 | z2 G2 c3 c | c2 B2 A4 | G4 z2 c2- | %34
w: _ in|_ e- ter-|num, in e- ter-|* * num,|_|ut ma- ne-|at vo- bis-|cum in|
 c2 A2 d4 | c8 | z8 | z4 z2 d2- | dd d2 e2 d2- | d2 c4 B2 | c4 g4 | d2 f4 c2 | e4 B2 d2- | %43
w: _ e- ter-|num||spi-|* ri- tum ve- ri-|* ta- *|tis, Al-|le- lu- ia,|Al- le- lu-|
 d2 A2 d2 c2 | cdef g2 f2 | d2 f2 e4- | e2 d2 d4 | A2 c4 G2- | G2 g4 d2- | d2 f3 e d2- | %50
w: * ia, Al- le-|lu- * * * * ia,|Al- le- lu-|* ia, Al-|le- lu- ia,|_ Al- le-|* lu- * *|
 dccB/A/ B2 c2- | c2 B2 c4- | c8- | c8 |] %54
w: |* * ia.|_||
V:2
 z4 C4 | C2 C2 F4 | D4 E3 F | G2 D2 E4 | E2 E2 C4 | F4 E4 | D4 E4 | z2 C2 G4- | G2 G2 F2 D2 | %9
w: E-|go ro- ga-|bo pa- *|* trem, e-|go ro- ga-|bo pa-|* trem,|et a-|* li- um pa-|
 CDEF G2 C2 | F2 A4 c2 | B8 | A4 z2 G2- | G2 c2 B4 | A8 | z2 E2 G3 G | F2 D2 F2 E2 | C2 E4 G2 | %18
w: ra- * * * * cli-|tum da- bit|vo-|bis, da-|* bit vo-|bis|et a- li-|um pa- ra- cli-|tum da- bit|
 F6 EF | G4 G4 | z2 G2 A3 A | A2 G2 FGAF | G8 | G4 z4 | z2 C2 G3 G | G2 F2 E4 | D4 z4 | z2 G4 F2 | %28
w: vo- * *|* bis,|ut ma- ne-|at vo- bis- * * *||cum,|ut ma- ne-|at vo- bis-|cum|in e-|
 G4 D4 | D3 E F2 E2 | D4 C2 F2- | F2 E2 A4 | G4 z4 | z2 E4 C2 | E3 F G4 | G2 E3 E E2 | F2 E4 D2- | %37
w: ter- num|in _ _ e-|ter- num, in|_ e- ter-|num,|in e-|ter- * *|num, spi- ri- tum|ve- ri- ta-|
 D2 C2 D4 | _B3 B B4 | A2 G2 G4 | G4 z2 _B2- | B2 F2 A4 | A2 G4 _B2 | A8 | G4 _B4 | %45
w: * * tis,|spi- ri- tum|ve- ri- ta-|tis, Al-|* le- lu-|ia, Al- le-|lu-|ia, Al-|
"^-natural" F2 A3 B c2 | G4 z2 F2 | C2 F2 E2 c2- | c2 G2 _B4- | B2 F2 A4- | A2 E2 G4- | G4 E3 F | %52
w: le- lu- * *|ia, Al-|le- lu- ia, Al|_ le- lu-|* ia, Al-|* le- lu-|* ia, _|
 G2 A2 A2 A2 | G8 |] %54
w: _ Al- le- lu-|ia.|
V:3
 z8 | z8 | z8 | G4 G2 G2 | c6 A2- | A2 d3 c c2- | c2 B2 c4- | c4 z4 | z8 | z8 | z2 d2 e4- | %11
w: |||E- go ro-|ga- bo|_ pa- * *|* * trem,|_|||et a-|
 e2 e2 d2 B2 | c2 d2 e4 | z2 e4 g2 | f4 e2 A2 | e6 e2 | d2 B2 ABcd | e2 A2 e4 | z4 c4 | e4 d4 | %20
w: * li- um pa-|ra- cli- um|da- bit|vo- bis et|a- li-|um pa- ra- * * *|* cli- tum|da-|bit vo-|
 c2 c2 f3 f | f2 e2 d4 | c2 c4 B2 | e4 d2 d2 | e3 e e2 d2 | dcAB c4 | G2 G2 c3 c | c2 B2 A4 | %28
w: bis, ut ma- ne-|at vo- bis-|cum in e-|ter- num, ut|ma- ne- at vo-|bis- * * * *|cum, ut ma- ne-|at vo- bis-|
 G4 z4 | z2 d4 c2 | f4 e2 c2- | c2 B2 ABcA | e4 c4- | c4 z2 e2 | e2 c3 B/A/ B2 | c8- | c4 z4 | z8 | %38
w: cum|in e-|ter- num, in|_ e- ter- * * *|* num,|_ in|e- ter- * * *|num,|_||
 g3 g g4 | f2 e2 d4 | c3 d e2 d2 | G2 d3 e f2 | c4 z2 g2- | g2 fe f2 f2 | e4 d4 | z2 c4 A2 | %46
w: spi- ri- tum|ve- ri- ta-|* * tis, Al-|le- lu- * *|a, Al-|* * * * le-|lu- ia,|Al- le-|
"^-natural" c2 B2 B2 A2- | A2 a2 gfed | e2 e2 d2 g2 | f2 d2 c2 f2 | e2 c2 e4 | d4 c3 d | %52
w: lu- ia, Al- le|_ lu- ia, _ _ _|_ Al- le- lu-|ia, Al- le- lu-|ia, Al- le-|lu- ia, _|
 e2 e2 f2 f2 | e8 |] %54
w: _ Al- le- lu-|ia.|
V:4
 z8 | z8 | z8 | z4 C4 | C2 C2 F4 | D4 E3 F | G4 C4- | C8 | z8 | z2 c4 e2 | d4 c2 C2 | G6 G2 | %12
w: |||E-|go ro- ga-|bo pa- *|* trem,|||da- bit|vo- bis et|a- li-|
 F2 D2 CDEF | G2 C2 G4 | z2 D2 A4- | A2 A2 G2 E2 | F2 G2 A4- | A4 z4 | F6 A2 | G8 | C4 z4 | z8 | %22
w: um pa- ra- * * *|* cli- tum|et a-|* li- um pa-|ra- cli- tum|_|da- bit|vo-|bis,||
 z4 G4 | c3 c c2 B2 | A4 G4 | z4 z2 c2- | c2 B2 e4 | d4 z4 | z2 G4 F2 |"^b" B4 A4 | z2 D2 A3 A | %31
w: ut|ma- ne- at vo-|bis- cum|in|_ e- ter-|num,|in e-|ter- num,|ut ma- ne-|
 A2 G2 F4 | E4 z2 F2- | F2 E2 A4- | A4 G4 | z4 A3 A | A4 G2 F2 |"^-natural" E4 D2 G2- | G2 G2 G4 | %39
w: at vo- bis-|cum in|_ e- ter-|* num,|spi- ri-|tum ve- ri-|ta- tis, spi-|* ri- tum|
 A2 c2 G4 | C2 c4 G2 | _B4 F2 A2- | A2 E2 G4 | D2 d4 A2 | c4 G2 _B2- | B2 F2 A4 | E2 G4 D2 | %47
w: ve- ri- ta-|tis, Al- le-|lu- ia, Al-|* le- lu-|ia, Al- le-|lu- ia, Al-|* le- lu-|ia, Al- le-|
 F4 C4 | c4 G4 | _B4 F4 | A4 E4 | G4 C2 c2- | c2 A2 F4 | C8 |] %54
w: lu- ia,|Al- le-|lu- ia,|Al- le-|lu- ia, Al-|* le- lu-|ia.|

